boxicons/svg/logos/bxl-digitalocean.svg

<svg xmlns="http://www.w3.org/2000/svg" width="24" height="24" viewBox="0 0 24 24"><path d="M12.005 21.992v-3.877c4.104 0 7.288-4.068 5.714-8.388a5.81 5.81 0 0 0-3.457-3.446c-4.319-1.563-8.389 1.61-8.389 5.714H2.008c0-6.541 6.325-11.642 13.184-9.499 2.991.94 5.383 3.321 6.313 6.313 2.141 6.858-2.96 13.183-9.5 13.183z"/><path d="M12.017 18.139H8.152v-3.866h3.865zm-3.865 2.959H5.193v-2.959h2.959zm-2.959-2.959H2.711v-2.483h2.482v2.483z"/></svg>

<svg xmlns="http://www.w3.org/2000/svg" width="24" height="24" viewBox="0 0 24 24"><path d="M12.005,21.992v-3.877c4.104,0,7.288-4.068,5.714-8.388c-0.579-1.587-1.859-2.867-3.457-3.446 c-4.319-1.563-8.389,1.61-8.389,5.714l0,0H2.008c0-6.541,6.325-11.642,13.184-9.499c2.991,0.94,5.383,3.321,6.313,6.313 C23.646,15.667,18.545,21.992,12.005,21.992z"/><path d="M12.017 18.139L8.152 18.139 8.152 14.273 8.152 14.273 12.017 14.273 12.017 14.273zM8.152 21.098L5.193 21.098 5.193 21.098 5.193 18.139 8.152 18.139zM5.193 18.139H2.711l0 0v-2.483l0 0h2.482l0 0V18.139z"/></svg>
